icons/cursor-circle.svg

<svg xmlns="http://www.w3.org/2000/svg" viewBox="0 0 24 24" fill="currentColor">
  <path d="M7.57875 7.65834c.28106-.28261.67462-.40834 1.05313-.40834h.09709l6.42593 1.69213.07.03522c.2635.13242.5688.383.6825.78332.1287.45293-.0477.87193-.3386 1.16453l-4.6177 4.6425c-.2907.2923-.7108.4728-1.16701.3418-.40141-.1153-.65037-.4236-.78105-.6864l-.03464-.0697-1.64329-6.30827c-.17897-.44772-.03412-.89745.25364-1.18679Zm1.29488 1.18089 1.38107 5.30167 3.8921-3.9131-5.27317-1.38857Z"/>
  <path d="M12.1933 12.1933c.2577-.2577.6755-.2577.9331 0l3.6803 3.6803c.2577.2576.2577.6754 0 .9331-.2577.2577-.6755.2577-.9331 0l-3.6803-3.6803c-.2577-.2577-.2577-.6754 0-.9331Z"/>
  <path d="M12 3.75c-4.58579 0-8.25 3.66421-8.25 8.25 0 4.4912 3.66962 8.25 8.25 8.25 4.5858 0 8.25-3.6642 8.25-8.25 0-4.58579-3.6642-8.25-8.25-8.25ZM2.25 12c0-5.41421 4.33579-9.75 9.75-9.75 5.4142 0 9.75 4.33579 9.75 9.75 0 5.4142-4.3358 9.75-9.75 9.75-5.41962 0-9.75-4.4412-9.75-9.75Z"/>
</svg>

<svg width="24" height="24" viewBox="0 0 24 24" fill="none" xmlns="http://www.w3.org/2000/svg">
<path fill-rule="evenodd" clip-rule="evenodd" d="M7.57875 7.65834C7.85981 7.37573 8.25337 7.25 8.63188 7.25H8.72897L15.1549 8.94213L15.2249 8.97735C15.4884 9.10977 15.7937 9.36035 15.9074 9.76067C16.0361 10.2136 15.8597 10.6326 15.5688 10.9252L10.9511 15.5677C10.6604 15.86 10.2403 16.0405 9.78409 15.9095C9.38268 15.7942 9.13372 15.4859 9.00304 15.2231L8.9684 15.1534L7.32511 8.84513C7.14614 8.39741 7.29099 7.94768 7.57875 7.65834ZM8.87363 8.83923L10.2547 14.1409L14.1468 10.2278L8.87363 8.83923Z" fill="black"/>
<path fill-rule="evenodd" clip-rule="evenodd" d="M12.1933 12.1933C12.451 11.9356 12.8688 11.9356 13.1264 12.1933L16.8067 15.8736C17.0644 16.1312 17.0644 16.549 16.8067 16.8067C16.549 17.0644 16.1312 17.0644 15.8736 16.8067L12.1933 13.1264C11.9356 12.8687 11.9356 12.451 12.1933 12.1933Z" fill="black"/>
<path fill-rule="evenodd" clip-rule="evenodd" d="M12 3.75C7.41421 3.75 3.75 7.41421 3.75 12C3.75 16.4912 7.41962 20.25 12 20.25C16.5858 20.25 20.25 16.5858 20.25 12C20.25 7.41421 16.5858 3.75 12 3.75ZM2.25 12C2.25 6.58579 6.58579 2.25 12 2.25C17.4142 2.25 21.75 6.58579 21.75 12C21.75 17.4142 17.4142 21.75 12 21.75C6.58038 21.75 2.25 17.3088 2.25 12Z" fill="black"/>
</svg>
